X:1
T:Portland, 11.11.11.11 D
T:Portland, 11.11.11.11 D
T:J. Howard Entwisle, 1898
T:Public Domain Courtesy of the Cyber Hymnal™
C:J. Howard Entwisle, 1898
Z:Public Domain
Z:Courtesy of the Cyber Hymnal™
%%score ( 1 2 ) ( 3 4 )
L:1/8
Q:1/4=110
M:6/8
K:F
V:1 treble 
V:2 treble 
V:3 bass 
V:4 bass 
V:1
 [Fc]2 [F=B] [Fc]2 [Fd] | [Fc]3 [FA]3 | [A,C]2 [A,D] [A,F]2 [A,D] | [B,E]6 | %4
 [EB]2 [EA] [EG]2 [EA] | [EB]3 [Ac]3 | [Be]2 [Bd] [Ac]2 [GB] | [FA]6 | [Fc]2 [F=B] [Fc]2 [Fd] | %9
 [Fc]3 [FA]3 | [FB]2 [FA] [EG]2 F | [Fd]6 | [Fd]2 [Fe] [Fd]3 | [Fc]2 [Fd] [Fc]3 | %14
 [Ec]2 [EB] [EA]2 [EG] | [CF]6 | c2 A d2 c | A2 G F2 D | C3 [A,C]3 | [B,C]6 | %20
 [EB]2 [EA] [EG]2 [EA] | [EB]2 [Bd] [Ac]2 [GB] | [FA]3 [F=B]3 | [Ec]6 | c2 A d2 c | A2 G F2 D | %26
 C3 [A,C]3 | [B,C]6 | [GB]2 [FA] [EG]2 [FA] | [GB]2 [Bd] [Ac]2 [GB] | [FA]3 [EG]3 | [CF]6 |] %32
V:2
 x6 | x6 | x6 | x6 | x6 | x6 | x6 | x6 | x6 | x6 | x5 F | x6 | x6 | x6 | x6 | x6 | c2 A d2 c | %17
 A2 G F2 D | C3 x3 | x6 | x6 | x6 | x6 | x6 | c2 A d2 c | A2 G F2 D | C3 x3 | x6 | x6 | x6 | x6 | %31
 x6 |] %32
V:3
 [F,A,]2 [F,^G,] [F,A,]2 [F,B,] | [F,A,]3 [F,C]3 | [F,,F,]2 [F,,F,] [F,,C,]2 [F,,C,] | %3
 ([G,,C,]3 C,3) | [C,G,]2 C [B,C]2 [A,C] | [G,C]3 [C,C]3 | [C,C]2 [C,C] [D,C]2 [D,C] | [F,C]6 | %8
 [F,A,]2 [F,^G,] [F,A,]2 [F,B,] | [F,A,]3 [F,C]3 | [F,D]2 [F,C] [G,C]2 [A,C] | B,6 | %12
 [=B,,^G,]2 [B,,G,] [B,,G,]3 | [C,A,]2 [C,A,] [C,A,]3 | [C,G,]2 [C,D] [C,C]2 [C,B,] | [F,A,]6 | %16
 C2 A, D2 C | A,2 G, F,2 D, | C,3 [C,F,]3 | [C,G,]6 | [C,G,]2 C [B,C]2 [A,C] | %21
 [G,C]2 [C,C] [D,C]2 [E,C] | [F,C]3 [D,G,]3 | (G,3 C3) | C2 A, D2 C | A,2 G, F,2 D, | C,3 [C,F,]3 | %27
 [C,G,]6 | [C,C]2 [C,C] [C,C]2 [C,C] | [C,C]2 [C,C] [C,C]2 [C,C] | [C,C]3 [C,B,]3 | [F,A,]6 |] %32
V:4
 x6 | x6 | x6 | x3 C,3 | x2 C x3 | x6 | x6 | x6 | x6 | x6 | x6 | B,6 | x6 | x6 | x6 | x6 | %16
 C2 A, D2 C | A,2 G, F,2 D, | C,3 x3 | x6 | x2 C x3 | x6 | x6 | C,6 | C2 A, D2 C | A,2 G, F,2 D, | %26
 C,3 x3 | x6 | x6 | x6 | x6 | x6 |] %32

